X:163
T: WIR ZOGEN IN DAS FELD
N: E1286
O: Europa, Mitteleuropa, Deutschland
R: Staende -, Soldaten -, Kriegs - Lied, Landsknechts - Marsch
M: 4/4
L: 1/8
K: F
F2 | F2c2c2A2 | F4z2
A2 | A2A2A2A2 | A4z2
A2 | A2A2A2A2 | A2A2A4
A4G2F2 | G8
F3GA2B2 | c4d2
d2 | c2A2B2G2 | F4z4
F3GA2B2 | c4d2
d2 | c2A2B2G2 | F4z2

